openmetadata-ui/src/main/resources/ui/src/assets/svg/tag.svg

<svg width="12" height="12" viewBox="0 0 12 12" fill="none" xmlns="http://www.w3.org/2000/svg">
<path d="M6.85588 12C6.85617 12 6.85654 12 6.8569 12C7.23244 11.9997 7.58557 11.8532 7.85102 11.5874L11.5899 7.84343C12.1367 7.29558 12.1367 6.40415 11.5899 5.85637L6.54985 0.807056C6.03045 0.28667 5.33936 0 4.60396 0H1.40635C0.630953 0 0 0.630762 0 1.40625V4.59382C0 5.32866 0.286397 6.01941 0.806307 6.5387L5.86198 11.5887C6.12758 11.854 6.48056 12 6.85588 12ZM4.60396 0.9375C5.08857 0.9375 5.54394 1.12639 5.88623 1.46931L10.9263 6.51863C11.1086 6.70129 11.1086 6.99836 10.9263 7.18103L7.18747 10.925C7.09906 11.0135 6.98142 11.0624 6.85617 11.0625H6.8558C6.7307 11.0625 6.61306 11.0138 6.52458 10.9255L1.4689 5.87549C1.12625 5.5333 0.937566 5.07803 0.937566 4.59382V1.40625C0.937566 1.14778 1.14786 0.9375 1.40635 0.9375H4.60396ZM3.39875 4.75781C4.17422 4.75781 4.8051 4.12705 4.8051 3.35156C4.8051 2.57607 4.17422 1.94531 3.39875 1.94531C2.62328 1.94531 1.9924 2.57607 1.9924 3.35156C1.9924 4.12705 2.62328 4.75781 3.39875 4.75781ZM3.39875 2.88281C3.65724 2.88281 3.86753 3.09309 3.86753 3.35156C3.86753 3.61003 3.65724 3.82031 3.39875 3.82031C3.14019 3.82031 2.92997 3.61003 2.92997 3.35156C2.92997 3.09309 3.14019 2.88281 3.39875 2.88281Z" fill="#7147E8"/>
</svg>

<svg xmlns="http://www.w3.org/2000/svg" width="12" height="12" fill="none"><path fill="#7147E8" d="M6.856 12c.376 0 .73-.147.995-.413l3.739-3.744a1.409 1.409 0 0 0 0-1.987L6.55.807A2.731 2.731 0 0 0 4.604 0H1.406C.631 0 0 .63 0 1.406v3.188c0 .735.286 1.425.806 1.945l5.056 5.05c.266.265.619.411.994.411ZM4.604.937a1.8 1.8 0 0 1 1.282.532l5.04 5.05a.47.47 0 0 1 0 .662l-3.739 3.744a.466.466 0 0 1-.33.137h-.001a.466.466 0 0 1-.331-.136l-5.056-5.05a1.8 1.8 0 0 1-.531-1.282V1.406a.47.47 0 0 1 .468-.468h3.198Zm-1.205 3.82c.775 0 1.406-.63 1.406-1.405 0-.776-.63-1.407-1.406-1.407a1.408 1.408 0 0 0 0 2.813Zm0-1.874a.47.47 0 1 1-.001.938.47.47 0 0 1 0-.938Z"/></svg>
